app/src/client/images/logo.svg

<?xml version="1.0" encoding="UTF-8" standalone="no"?>
<svg
   xmlns:dc="http://purl.org/dc/elements/1.1/"
   xmlns:cc="http://creativecommons.org/ns#"
   xmlns:rdf="http://www.w3.org/1999/02/22-rdf-syntax-ns#"
   xmlns:svg="http://www.w3.org/2000/svg"
   xmlns="http://www.w3.org/2000/svg"
   version="1.1"
   viewBox="0 0 100 100"
   id="svg2">
  <defs
     id="defs3" />
  <metadata
     id="metadata6">
    <rdf:RDF>
      <cc:Work
         rdf:about="">
        <dc:format>image/svg+xml</dc:format>
        <dc:type
           rdf:resource="http://purl.org/dc/dcmitype/StillImage" />
        <dc:title></dc:title>
      </cc:Work>
    </rdf:RDF>
  </metadata>
  <g
     transform="matrix(0.20191141,0,0,0.2015306,-33.000468,-45.05503)"
     id="layer1">
    <path
       style="fill:#29334c;fill-opacity:1;stroke:none"
       d="m 256.17969,3.7734375 c 0,0 23.23839,43.4990055 21.30078,71.6406245 -1.93758,28.141598 -37.24888,50.168218 -38.46094,78.687498 -1.21205,28.51927 30.24414,70.17188 30.24414,70.17188 0,0 -19.57425,-35.89413 -11.08594,-64.00586 1.03788,-3.43724 2.50015,-6.89739 4.25196,-10.3711 a 209.104,42.44174 0 0 1 9.81445,-0.0156 209.104,42.44174 0 0 1 0.002,0 209.104,42.44174 0 0 1 32.98633,0.7832 c 2.56446,-11.86384 10.46349,-22.70789 18.38867,-33.52539 A 234.82147,66.620187 0 0 0 284.71685,115.459 c 9.11309,-13.67329 16.48586,-27.268695 14.65039,-40.416011 -3.84942,-27.57323 -43.1875,-71.2695315 -43.1875,-71.2695315 z m -90.13672,4.6660156 c 0,0 23.23835,43.5009979 21.30078,71.6425779 -1.93759,28.141619 -37.24886,50.168239 -38.46094,78.687499 -1.21206,28.51927 29.70313,67.45899 29.70313,67.45899 0,0 -19.03321,-33.18326 -10.54492,-61.29493 1.04717,-3.46805 2.52404,-6.95776 4.29687,-10.46289 a 209.104,42.44174 0 0 1 48.93945,-3.56445 c 0.006,-0.27545 -0.006,-0.55699 0.006,-0.83008 0.52051,-12.2476 7.33751,-23.29714 15.0918,-34.14844 a 234.82147,66.620187 0 0 0 -40.85742,2.78125 c 8.67231,-13.19546 15.48498,-26.304689 13.71289,-38.998042 -3.84944,-27.5732 -43.1875,-71.2714849 -43.1875,-71.2714849 z m 173.23828,2.2617189 c 0,0 23.2384,43.499025 21.30078,71.640625 -1.93759,28.141593 -37.2489,50.168243 -38.46094,78.687503 -1.21208,28.51926 28.61719,64.47656 28.61719,64.47656 0,0 -17.9473,-30.19883 -9.45898,-58.31055 1.39319,-4.61402 3.54988,-9.26745 6.15234,-13.94336 a 209.104,42.44174 0 0 1 127.8125,39.05274 209.10449,42.44184 0 0 1 -418.208984,0 209.104,42.44174 0 0 1 74.238284,-32.31836 c -0.14718,-1.78621 -0.19938,-3.54002 -0.12696,-5.24414 0.43759,-10.2961 5.32694,-19.74452 11.47852,-28.94141 a 234.82147,66.620187 0 0 0 -108.677734,56.03711 234.82147,66.620187 0 0 0 0.339843,3.19727 c -0.112026,-0.0864 -0.228446,-0.17113 -0.339843,-0.25782 5.684185,31.46391 12.438586,57.7363 19.957031,80.31446 C 2.6643403,303.12576 -4.3744469,347.79835 27.757812,390.84375 57.964853,421.05427 74.328395,413.94216 129.39062,416.24609 84.743935,405.73276 71.448156,411.4785 52.941406,381.50195 43.687833,366.51336 25.794,340.9712 67.802734,301.14258 c 19.71603,44.49165 42.737426,72.96919 65.015626,105.04883 l 16.86914,54.11132 c 26.69264,29.27043 163.12749,74.75779 242.89453,-5.12695 l 11.10547,-46.33203 c 39.99004,-59.71698 78.513,-107.33165 99.81445,-225.50195 -0.0689,0.0663 -0.14346,0.13103 -0.21289,0.19726 a 234.82147,66.620187 0 0 0 0.30078,-1.70117 234.82147,66.620187 0 0 0 -135.27539,-60.20117 c 8.88064,-13.42023 15.9562,-26.759179 14.1543,-39.666017 -3.84944,-27.57321 -43.1875,-71.269531 -43.1875,-71.269531 z m -196.68164,259.533208 26.16992,0 0,26.16796 26.16797,0 0,27.63868 -26.16797,0 0,24.69921 -26.16992,0 0,-27.63867 -26.16797,0 0,-24.69922 26.16797,0 0,-26.16796 z m 261.58398,34.23242 a 21.497183,21.021437 0 0 1 20.88282,21.02539 21.497183,21.021437 0 1 1 -42.99414,0 21.497183,21.021437 0 0 1 22.11132,-21.02539 z m -55.625,0.2832 a 21.497183,21.021437 0 0 1 20.88282,21.02539 21.497183,21.021437 0 1 1 -42.99414,0 21.497183,21.021437 0 0 1 22.11132,-21.02539 z m -58.55273,17.69141 c 21.1726,0 20.54297,2.9262 20.54297,6.53711 0,3.61089 -0.39117,6.53906 -20.54297,6.53906 -19.53739,0 -20.54102,-2.92817 -20.54102,-6.53906 0,-3.61091 -1.36344,-6.53711 20.54102,-6.53711 z m -55.12695,0.58398 c 21.1726,0 20.54101,2.9262 20.54101,6.53711 0,3.61089 -0.38921,6.53906 -20.54101,6.53906 -19.53739,0 -20.54297,-2.92817 -20.54297,-6.53906 0,-3.61091 -1.36149,-6.53711 20.54297,-6.53711 z"
       transform="translate(155.1172,219.79073)"
       id="path3907" />
  </g>
</svg>

<?xml version="1.0" encoding="UTF-8" standalone="no"?>
<svg
   xmlns:dc="http://purl.org/dc/elements/1.1/"
   xmlns:cc="http://creativecommons.org/ns#"
   xmlns:rdf="http://www.w3.org/1999/02/22-rdf-syntax-ns#"
   xmlns:svg="http://www.w3.org/2000/svg"
   xmlns="http://www.w3.org/2000/svg"
   id="svg2"
   viewBox="0 0 512 512"
   version="1.1">
  <defs
     id="defs3" />
  <metadata
     id="metadata6">
    <rdf:RDF>
      <cc:Work
         rdf:about="">
        <dc:format>image/svg+xml</dc:format>
        <dc:type
           rdf:resource="http://purl.org/dc/dcmitype/StillImage" />
        <dc:title></dc:title>
      </cc:Work>
    </rdf:RDF>
  </metadata>
  <g
     id="layer1"
     transform="translate(-155.1172,-219.79073)">
    <path
       id="path3907"
       transform="translate(155.1172,219.79073)"
       d="M 256.17969 3.7734375 C 256.17969 3.7734375 279.41808 47.272443 277.48047 75.414062 C 275.54289 103.55566 240.23159 125.58228 239.01953 154.10156 C 237.80748 182.62083 269.26367 224.27344 269.26367 224.27344 C 269.26367 224.27344 249.68942 188.37931 258.17773 160.26758 C 259.21561 156.83034 260.67788 153.37019 262.42969 149.89648 A 209.104 42.44174 0 0 1 272.24414 149.88086 A 209.104 42.44174 0 0 1 272.24609 149.88086 A 209.104 42.44174 0 0 1 305.23242 150.66406 C 307.79688 138.80022 315.69591 127.95617 323.62109 117.13867 A 234.82147 66.620187 0 0 0 284.7168 115.45898 C 293.82989 101.78569 301.20266 88.190285 299.36719 75.042969 C 295.51777 47.469739 256.17969 3.7734375 256.17969 3.7734375 z M 166.04297 8.4394531 C 166.04297 8.4394531 189.28132 51.940451 187.34375 80.082031 C 185.40616 108.22365 150.09489 130.25027 148.88281 158.76953 C 147.67075 187.2888 178.58594 226.22852 178.58594 226.22852 C 178.58594 226.22852 159.55273 193.04526 168.04102 164.93359 C 169.08819 161.46554 170.56506 157.97583 172.33789 154.4707 A 209.104 42.44174 0 0 1 221.27734 150.90625 C 221.28302 150.6308 221.2716 150.34926 221.2832 150.07617 C 221.80371 137.82857 228.62071 126.77903 236.375 115.92773 A 234.82147 66.620187 0 0 0 195.51758 118.70898 C 204.18989 105.51352 211.00256 92.404291 209.23047 79.710938 C 205.38103 52.137738 166.04297 8.4394531 166.04297 8.4394531 z M 339.28125 10.701172 C 339.28125 10.701172 362.51965 54.200197 360.58203 82.341797 C 358.64444 110.48339 323.33313 132.51004 322.12109 161.0293 C 320.90901 189.54856 350.73828 225.50586 350.73828 225.50586 C 350.73828 225.50586 332.79098 195.30703 341.2793 167.19531 C 342.67249 162.58129 344.82918 157.92786 347.43164 153.25195 A 209.104 42.44174 0 0 1 475.24414 192.30469 A 209.10449 42.44184 0 0 1 57.035156 192.30469 A 209.104 42.44174 0 0 1 131.27344 159.98633 C 131.12626 158.20012 131.07406 156.44631 131.14648 154.74219 C 131.58407 144.44609 136.47342 134.99767 142.625 125.80078 A 234.82147 66.620187 0 0 0 33.947266 181.83789 A 234.82147 66.620187 0 0 0 34.287109 185.03516 C 34.175083 184.94871 34.058663 184.86403 33.947266 184.77734 C 39.631451 216.24125 46.385852 242.51364 53.904297 265.0918 C 2.6643403 303.12576 -4.3744469 347.79835 27.757812 390.84375 C 57.964853 421.05427 74.328395 413.94216 129.39062 416.24609 C 84.743935 405.73276 71.448156 411.4785 52.941406 381.50195 C 43.687833 366.51336 25.794 340.9712 67.802734 301.14258 C 87.518764 345.63423 110.54016 374.11177 132.81836 406.19141 L 149.6875 460.30273 C 176.38014 489.57316 312.81499 535.06052 392.58203 455.17578 L 403.6875 408.84375 C 443.67754 349.12677 482.2005 301.5121 503.50195 183.3418 C 503.43303 183.40815 503.35849 183.47283 503.28906 183.53906 A 234.82147 66.620187 0 0 0 503.58984 181.83789 A 234.82147 66.620187 0 0 0 368.31445 121.63672 C 377.19509 108.21649 384.27065 94.877541 382.46875 81.970703 C 378.61931 54.397493 339.28125 10.701172 339.28125 10.701172 z M 142.59961 270.23438 L 168.76953 270.23438 L 168.76953 296.40234 L 194.9375 296.40234 L 194.9375 324.04102 L 168.76953 324.04102 L 168.76953 348.74023 L 142.59961 348.74023 L 142.59961 321.10156 L 116.43164 321.10156 L 116.43164 296.40234 L 142.59961 296.40234 L 142.59961 270.23438 z M 404.18359 304.4668 A 21.497183 21.021437 0 0 1 425.06641 325.49219 A 21.497183 21.021437 0 1 1 382.07227 325.49219 A 21.497183 21.021437 0 0 1 404.18359 304.4668 z M 348.55859 304.75 A 21.497183 21.021437 0 0 1 369.44141 325.77539 A 21.497183 21.021437 0 1 1 326.44727 325.77539 A 21.497183 21.021437 0 0 1 348.55859 304.75 z M 290.00586 322.44141 C 311.17846 322.44141 310.54883 325.36761 310.54883 328.97852 C 310.54883 332.58941 310.15766 335.51758 290.00586 335.51758 C 270.46847 335.51758 269.46484 332.58941 269.46484 328.97852 C 269.46484 325.36761 268.1014 322.44141 290.00586 322.44141 z M 234.87891 323.02539 C 256.05151 323.02539 255.41992 325.95159 255.41992 329.5625 C 255.41992 333.17339 255.03071 336.10156 234.87891 336.10156 C 215.34152 336.10156 214.33594 333.17339 214.33594 329.5625 C 214.33594 325.95159 212.97445 323.02539 234.87891 323.02539 z "
       style="fill:#29334c;fill-opacity:1;stroke:none" />
  </g>
</svg>
